X: 165
T: Kua meimei
%%abc-version 2.0
%%abcx-abcm2ps-target-version 5.9.1 (29 Sep 2008)
%%abc-creator hum2abc beta
%%abcx-conversion-date 2013/10/02 07:52:29
%%abc-edited-by Helmut Schaffrath
%%humdrum-veritas 1854908610
%%humdrum-veritas-data 3520933564
%%continueall 1
%%barnumbers 0
L: 1/8
M: 2/4
K: G
d2d e [I:setbarnb 1]| 
d2c B | 
A2A B | 
d4 | 
B3B/ A/ | 
G4 | 
d d/ B/ A B | 
D E G B | 
F ED2- | 
D2z2 |]  



